X:746
T:Mug of brown ale
T:Jug of brown ale
T:The Clare jig
R:Jig
O:Ireland
B:Roche 1 n128
B:Kerr's First p39- different
B:Music from Ireland Vol. 3
S:My arrangement from various sources
Z:Transcription, arrangement, chords:Mike Long
M:6/8
L:1/8
K:G
g/f/|\
"Am"eAA fAA|"(C)"gfg age|"G"dBA ~G3|BGB dBd|\
"Am"eAA fAA|"(C)"gfg age|"G"dBd gdB|"Am"ABA A2:|
|:e|\
"Am"efg aba|aba age|"G"dBd ~g3|gba ged|\
"Am"efg aba|aba age|"G"dBd gdB|"Am"ABA A2:|
